X:17
T:Confess(his tune). (p)1651.PLFD1.017
T:Court Lady. (p)1651.PLFD1.017, The
M:6/4
L:1/4
Q:3/4=110
S:Playford, Dancing Master,1st Ed.,1651.
O:England;London
H:1651.
Z:Chris Partington.
K:Bb
G2 A B2 c|d2 d d2 d|e3 d2 d|g3 ^f3:|
|:a2 f b2 g|a f2 d2 e| d3 c2 d|d c2 d3|
B2 c d>ed|e d2 c3|d2 g ^f2 g|a^f2 g3:|
